X:1
T:Laride : Suite Patrig Sicard
Z:Roger Ngaret (Mars 2001)
R:
C:Trad.
S:Patrig Sicard
A:Bretagne
M:4/4
L:1/8
K:C
e2 fe dc BA | e2 fe dc B2 :: A2 Bc BA e2 | dc BA Bc AG |
A2 Bc BA e2 | dc BA Bc A2 :: Gc cd cB AB/c/ | dd cd e2 d2 |
ce dc BA G2 | GA B/A/G d2 d2 | ce dc BA G2 | GA B/A/G dd c2 ::
Ac Bd dc/B/ A2 | Ac Bd c2 A2 :: AA c2 d2 e2 | ed Bc dc/B/ cc |
AA c2 d2 e2 | ed Bd c2 A2 :: cB AB cd e2 | de fe d2 B2 ::
Be ed Bc A2 | eA Bc Ac B2 | Be ed Bc A2 | eA Bc B2 A2 :|
